X: 1
T: Capers Jig
C: trad.
B: JH colln., Winston Fitzgerald recording
A: arr. Terry Traub, 5-18-2014
M: 6/8
L: 1/8
R: Jig
K: C
|: BA |\
"C"Gcc cBc | Gcc e2 c | "G"Gcc cBc | "F"dAA ABc |\
"C"Gcc cBc | "C"Gcc e2 c | "F"c3 "G"BAB | "C"dcc c :|
|: zG |\
"C"ceg geg | "F"agf "G"ede | "C"ceg geg | "F"age "G"d2 e |\
"C"ceg geg | "F"agf "G"ede | "F"c3 "G"BAB | "C"dcc c :|
